X:274
T: SCHAETZCHEN SAG WAS FEHLT DENN DIR
N: E1419
O: Europa, Mitteleuropa, Deutschland, Hessen, Frankfurt a.M.; Giessen
R: Staende -, Soldaten - Lied, Liebe
M: 4/4
L: 1/8
K: G
 | G2G2F2G2 | AGFED4 |
B2B2A2B2 | c2B2A2
GG | A2A2A2GF | G2d2B2G2 |
A2A2A2GF | G2d2B2G2 |
c2e2d3B | BAA2GBd2 |
c2e2d3B | BAA2G2z2

@@@ Tune index: 4958
